src/lib/packages/icons/src/assets/line/clipboard-search.svg

<svg xmlns="http://www.w3.org/2000/svg" width="24" height="24" fill="none"><path fill="currentColor" d="M17 4.25h-.27c-.097-1.254-.909-2-2.23-2h-5c-1.321 0-2.133.746-2.23 2H7C4.582 4.25 3.25 5.582 3.25 8v10c0 2.418 1.332 3.75 3.75 3.75h10c2.418 0 3.75-1.332 3.75-3.75V8c0-2.418-1.332-3.75-3.75-3.75Zm-8.25.25c0-.589.161-.75.75-.75h5c.589 0 .75.161.75.75v1c0 .589-.161.75-.75.75h-5c-.589 0-.75-.161-.75-.75v-1ZM19.25 18c0 1.577-.673 2.25-2.25 2.25H7c-1.577 0-2.25-.673-2.25-2.25V8c0-1.577.673-2.25 2.25-2.25h.27c.097 1.254.909 2 2.23 2h5c1.321 0 2.133-.746 2.23-2H17c1.577 0 2.25.673 2.25 2.25v10Zm-4.77-3.08a3.642 3.642 0 0 0 .603-2.003 3.67 3.67 0 0 0-3.666-3.667 3.671 3.671 0 0 0-3.667 3.667 3.671 3.671 0 0 0 3.667 3.667c.74 0 1.426-.224 2.003-.602l1.55 1.549a.748.748 0 0 0 1.06 0 .75.75 0 0 0 0-1.061l-1.55-1.55Zm-5.23-2.003a2.17 2.17 0 0 1 2.167-2.167 2.17 2.17 0 0 1 2.166 2.167 2.17 2.17 0 0 1-2.166 2.167 2.17 2.17 0 0 1-2.167-2.167Z"/></svg>

<svg width="24" height="24" viewBox="0 0 24 24" fill="none" xmlns="http://www.w3.org/2000/svg">
<path d="M17 4.25H16.73C16.633 2.996 15.821 2.25 14.5 2.25H9.5C8.179 2.25 7.36702 2.996 7.27002 4.25H7C4.582 4.25 3.25 5.582 3.25 8V18C3.25 20.418 4.582 21.75 7 21.75H17C19.418 21.75 20.75 20.418 20.75 18V8C20.75 5.582 19.418 4.25 17 4.25ZM8.75 4.5C8.75 3.911 8.911 3.75 9.5 3.75H14.5C15.089 3.75 15.25 3.911 15.25 4.5V5.5C15.25 6.089 15.089 6.25 14.5 6.25H9.5C8.911 6.25 8.75 6.089 8.75 5.5V4.5ZM19.25 18C19.25 19.577 18.577 20.25 17 20.25H7C5.423 20.25 4.75 19.577 4.75 18V8C4.75 6.423 5.423 5.75 7 5.75H7.27002C7.36702 7.004 8.179 7.75 9.5 7.75H14.5C15.821 7.75 16.633 7.004 16.73 5.75H17C18.577 5.75 19.25 6.423 19.25 8V18ZM14.48 14.92C14.858 14.343 15.083 13.657 15.083 12.917C15.083 10.895 13.438 9.25 11.417 9.25C9.39499 9.25 7.75 10.895 7.75 12.917C7.75 14.939 9.39499 16.584 11.417 16.584C12.157 16.584 12.8429 16.36 13.4199 15.982L14.97 17.531C15.116 17.677 15.308 17.751 15.5 17.751C15.692 17.751 15.884 17.678 16.03 17.531C16.323 17.238 16.323 16.763 16.03 16.47L14.48 14.92ZM9.25 12.917C9.25 11.722 10.222 10.75 11.417 10.75C12.611 10.75 13.583 11.722 13.583 12.917C13.583 14.112 12.611 15.084 11.417 15.084C10.222 15.083 9.25 14.111 9.25 12.917Z" fill="currentColor"/>
</svg>
